!!!COM: Schiørring, Niels
!!!CDT: 1743-1798
!!!OPR@@DA: Choral-Bog
!!!ONM: 41
!!!OTL@@DA: Jeg beder dig Fader i himmerig
**kern	**fb	**kern	**kern	**kern	**kern	**kern	**kern	**kern
*part6	*part6	*part6	*part5	*part5	*part4	*part3	*part2	*part1
*staff8	*	*staff7	*staff6	*staff5	*staff4	*staff3	*staff2	*staff1
*clefF4	*	*clefC1	*clefF4	*clefC1	*clefF4	*clefC4	*clefC3	*clefC1
*mclefF4	*	*mclefG2	*mclefF4	*mclefG2	*mclefF4	*mclefGv2	*mclefG2	*mclefG2
*k[f#]	*	*k[f#]	*k[f#]	*k[f#]	*k[f#]	*k[f#]	*k[f#]	*k[f#]
*G:	*	*G:	*G:	*G:	*G:	*G:	*G:	*G:
*M4/4	*	*M4/4	*M4/4	*M4/4	*M4/4	*M4/4	*M4/4	*M4/4
*met(c)	*	*met(c)	*met(c)	*met(c)	*met(c)	*met(c)	*met(c)	*met(c)
*MM180	*	*MM180	*MM180	*MM180	*MM180	*MM180	*MM180	*MM180
*	*	*	*^	*^	*	*	*	*
2GG	.	2d	2G	2GG	2d	2B	2GG	2B	2d	2d
=1	=1	=1	=1	=1	=1	=1	=1	=1	=1	=1
2BB	6	2g	2G	2BB	2g	2d	2BB	2B	2d	2g
2E	.	2g	[2G	2E	2g	2B	2E	2B	[2g	2g
=2	=2	=2	=2	=2	=2	=2	=2	=2	=2	=2
2C	6 5	2a	2G]	2C	2a	2e	2C	2e	2g]	2a
2D	.	2a	2F#	2D	2a	2d	2D	2d	2f#	2a
=3	=3	=3	=3	=3	=3	=3	=3	=3	=3	=3
2G	.	2b	2ryy	2G	2d	2d	2G	2d	2g	2b
2D#X	5	2a	2B	2D#X	2a	2f#	2D#X	2B	2f#	2a
=4	=4	=4	=4	=4	=4	=4	=4	=4	=4	=4
2E	.	2g	2B	2E	2g	2e	2E	2B	2e	2g
2E	.	2g	2B	2E	2g	2e	2E	2B	2e	2g
=5	=5	=5	=5	=5	=5	=5	=5	=5	=5	=5
2D	6 n	2b	2d	2D	2b	2fn	2D	2d	2fn	2b
2BB	6	2dd	2G#X	2BB	2dd	2d	2BB	2G#X	2d	2dd
=6	=6	=6	=6	=6	=6	=6	=6	=6	=6	=6
2AA	.	2cc	2A	2AA	2cc	2e	2AA	2A	2e	2cc
2D	.	2a	2F#Xi	2D	2a	2d	2D	2F#	2d	2a
=7	=7	=7	=7	=7	=7	=7	=7	=7	=7	=7
2GG	.	1b	1G	2GG	1b	1d	(2GG	1G	1d	1b
4BB	6	.	.	4BB	.	.	4BB	.	.	.
4D	.	.	.	4D	.	.	4D)	.	.	.
=8	=8	=8	=8	=8	=8	=8	=8	=8	=8	=8
2G	.	2b	2G	2G	2b	2d	2G	2G	2d	2b
2F#	6	2a	2A	2F#	2a	2d	2F#	2A	2d	2a
=9	=9	=9	=9	=9	=9	=9	=9	=9	=9	=9
2Fn	2	2b	2G	2Fn	2b	2d	2Fn	2G	2d	2b
2E	6	2cc	2G	2E	2cc	2g	2E	2G	2e	2cc
=10	=10	=10	=10	=10	=10	=10	=10	=10	=10	=10
2GG#X	5	2dd	[1E	2GG#X	2dd	2b	2GG#X	2B	2e	2dd
2AA	.	2cc	.	2AA	2cc	2a	2AA	2A	2e	2cc
=11	=11	=11	=11	=11	=11	=11	=11	=11	=11	=11
1BB	8 6 4	2b	2E]	2BB	2b	2gni	2BB	2G	2e	2b
.	7 5 #	2a	2D#X	2BB	2a	2f#	2BB	2F#	2d#X	2a
=12	=12	=12	=12	=12	=12	=12	=12	=12	=12	=12
*	*	*	*	*	*	*^	*	*	*	*
2E	.	2g	2E	2EE	2g	2e	2B\	2E	2G	2e	2g
*	*	*	*	*	*	*v	*v	*	*	*	*
2D	6	2b	2ryy	2Dni	2dni	2f#	2D	2d	2f#	2b
=13	=13	=13	=13	=13	=13	=13	=13	=13	=13	=13
2C#X	6	2a	1ryy	2C#X	2e	2e	2C#X	2e	2e	2a
2AA	7 #	2g	.	2AA	2c#X	2e	2AA	2c#X	2e	2g
=14	=14	=14	=14	=14	=14	=14	=14	=14	=14	=14
2D	.	2f#	2A	2D	2f#	1d	2D	2A	2d	2f#
4BB	6	2g	2G	4BB	2g	.	(4BB	2d	2g	2g
4GG	.	.	.	4GG	.	.	4GG)	.	.	.
=15	=15	=15	=15	=15	=15	=15	=15	=15	=15	=15
*	*	*	*	*	*	*	*^	*	*	*
2DD	.	2a	2F#	2D	2a	2d	2D	2DD	2d	2f#	2a
2GG	.	2b	2G	2GG	2b	2d	2G	2GG	2G	2d	2b
*	*	*	*	*	*	*	*v	*v	*	*	*
=16	=16	=16	=16	=16	=16	=16	=16	=16	=16	=16
2G	.	2b	2G	2G	2b	2d	2G	2G	2d	2b
2Fn	2	2g	2B	2Fn	2g	2d	2Fn	2B	2d	2g
=17	=17	=17	=17	=17	=17	=17	=17	=17	=17	=17
2E	nr2	2a	2c	2E	2a	1fn	2E	2c	2fn	2a
2D	6 n	2b	2d	2D	2b	.	2D	2d	2f	2b
=18	=18	=18	=18	=18	=18	=18	=18	=18	=18	=18
2C	.	2cc	2G	2C	2cc	2e	2C	2G	2e	2cc
2G	.	2b	2B	2G	2b	2d	2G	2G	2d	2b
=19	=19	=19	=19	=19	=19	=19	=19	=19	=19	=19
2C	6	2a	2c	2C	2a	1e	2C	2E	2e	2a
2C#X	5	2g	2A	2C#X	2g	.	2C#X	2A	2e	2g
=20	=20	=20	=20	=20	=20	=20	=20	=20	=20	=20
2D	8	2f#	2A	2D	2f#	4d	2D	2A	(4d	2f#
.	.	.	.	.	.	4cni	.	.	4c)	.
2E	7	2g	[2G	2E	2g	2B	2E	[2G	2B	2g
=21	=21	=21	=21	=21	=21	=21	=21	=21	=21	=21
2C	6 5	1a	2G]	2C	1a	2e	(2C	(2G]	(2e	1a
2D	.	.	2F#	2D	.	2d	2D)	2F#)	2d)	.
=22	=22	=22	=22	=22	=22	=22	=22	=22	=22	=22
*	*	*	*	*	*	*^	*	*	*	*
2GG	.	2g	2G	2GG	2g	2d	2B\	2GG	2G	2B	2g
*	*	*	*v	*v	*	*	*	*	*	*	*
*	*	*	*	*v	*v	*v	*	*	*	*
==	==	==	==	==	==	==	==	==
*-	*-	*-	*-	*-	*-	*-	*-	*-
!!!system-decoration: {(s1,s2,s3,s4)}{(s5,s6)}{(s7,s8)}
!!!RDF**kern: i = editorial accidental
!!!RDF**kern: > = above
!!!RDF**kern: < = below
!!!AGN: chorale
!!!EED: Derek Remeš
!!!EED2: Victor Phan
!!!END: 2023/11/28
!!!ENC: Wolfgang Drescher
!!!EEV: 2023/12/06
!!!title: @{ONM}. @{OTL}